Numix-Circle/48x48/apps/wine-uninstaller.svg

<?xml version="1.0" encoding="UTF-8" standalone="no"?>
<svg
   xmlns:dc="http://purl.org/dc/elements/1.1/"
   xmlns:cc="http://creativecommons.org/ns#"
   xmlns:rdf="http://www.w3.org/1999/02/22-rdf-syntax-ns#"
   xmlns:svg="http://www.w3.org/2000/svg"
   xmlns="http://www.w3.org/2000/svg"
   xmlns:xlink="http://www.w3.org/1999/xlink"
   xmlns:sodipodi="http://sodipodi.sourceforge.net/DTD/sodipodi-0.dtd"
   xmlns:inkscape="http://www.inkscape.org/namespaces/inkscape"
   viewBox="0 0 48 48"
   id="svg3062"
   version="1.1"
   inkscape:version="0.48.4 r9939"
   width="100%"
   height="100%"
   sodipodi:docname="wine-uninstaller.svg">
  <metadata
     id="metadata3149">
    <rdf:RDF>
      <cc:Work
         rdf:about="">
        <dc:format>image/svg+xml</dc:format>
        <dc:type
           rdf:resource="http://purl.org/dc/dcmitype/StillImage" />
      </cc:Work>
    </rdf:RDF>
  </metadata>
  <sodipodi:namedview
     pagecolor="#ffffff"
     bordercolor="#666666"
     borderopacity="1"
     objecttolerance="10"
     gridtolerance="10"
     guidetolerance="10"
     inkscape:pageopacity="0"
     inkscape:pageshadow="2"
     inkscape:window-width="640"
     inkscape:window-height="480"
     id="namedview3147"
     showgrid="false"
     inkscape:zoom="4.9166667"
     inkscape:cx="32.580497"
     inkscape:cy="23.710984"
     inkscape:window-x="158"
     inkscape:window-y="338"
     inkscape:window-maximized="0"
     inkscape:current-layer="svg3062" />
  <defs
     id="defs3064">
    <linearGradient
       id="linearGradient3764"
       x1="1"
       x2="47"
       gradientUnits="userSpaceOnUse"
       gradientTransform="matrix(0,-1,1,0,-1.5e-6,47.999998)">
      <stop
         stop-color="#e4e4e4"
         stop-opacity="1"
         id="stop3067" />
      <stop
         offset="1"
         stop-color="#eee"
         stop-opacity="1"
         id="stop3069" />
    </linearGradient>
    <clipPath
       id="clipPath-741369077">
      <g
         transform="translate(0,-1004.3622)"
         id="g3072">
        <path
           d="m -24 13 c 0 1.105 -0.672 2 -1.5 2 -0.828 0 -1.5 -0.895 -1.5 -2 0 -1.105 0.672 -2 1.5 -2 0.828 0 1.5 0.895 1.5 2 z"
           transform="matrix(15.333333,0,0,11.5,414.99999,878.8622)"
           fill="#1890d0"
           id="path3074" />
      </g>
    </clipPath>
    <clipPath
       id="clipPath-747144102">
      <g
         transform="translate(0,-1004.3622)"
         id="g3077">
        <path
           d="m -24 13 c 0 1.105 -0.672 2 -1.5 2 -0.828 0 -1.5 -0.895 -1.5 -2 0 -1.105 0.672 -2 1.5 -2 0.828 0 1.5 0.895 1.5 2 z"
           transform="matrix(15.333333,0,0,11.5,414.99999,878.8622)"
           fill="#1890d0"
           id="path3079" />
      </g>
    </clipPath>
    <linearGradient
       inkscape:collect="always"
       xlink:href="#linearGradient3764"
       id="linearGradient3847"
       gradientUnits="userSpaceOnUse"
       gradientTransform="matrix(0,-1,1,0,-1.5e-6,47.999998)"
       x1="1"
       x2="47" />
  </defs>
  <path
     style="fill:#f15119;fill-opacity:1;fill-rule:evenodd;stroke:none"
     d="M 24 1 C 11.297 1 1 11.297 1 24 L 24 24 L 24 1 z "
     id="path3133" />
  <g
     id="g3081">
    <path
       d="m 36.31 5 c 5.859 4.062 9.688 10.831 9.688 18.5 c 0 12.426 -10.07 22.5 -22.5 22.5 c -7.669 0 -14.438 -3.828 -18.5 -9.688 c 1.037 1.822 2.306 3.499 3.781 4.969 c 4.085 3.712 9.514 5.969 15.469 5.969 c 12.703 0 23 -10.298 23 -23 c 0 -5.954 -2.256 -11.384 -5.969 -15.469 c -1.469 -1.475 -3.147 -2.744 -4.969 -3.781 z m 4.969 3.781 c 3.854 4.113 6.219 9.637 6.219 15.719 c 0 12.703 -10.297 23 -23 23 c -6.081 0 -11.606 -2.364 -15.719 -6.219 c 4.16 4.144 9.883 6.719 16.219 6.719 c 12.703 0 23 -10.298 23 -23 c 0 -6.335 -2.575 -12.06 -6.719 -16.219 z"
       opacity="0.05"
       id="path3083" />
    <path
       d="m 41.28 8.781 c 3.712 4.085 5.969 9.514 5.969 15.469 c 0 12.703 -10.297 23 -23 23 c -5.954 0 -11.384 -2.256 -15.469 -5.969 c 4.113 3.854 9.637 6.219 15.719 6.219 c 12.703 0 23 -10.298 23 -23 c 0 -6.081 -2.364 -11.606 -6.219 -15.719 z"
       opacity="0.1"
       id="path3085" />
    <path
       d="m 31.25 2.375 c 8.615 3.154 14.75 11.417 14.75 21.13 c 0 12.426 -10.07 22.5 -22.5 22.5 c -9.708 0 -17.971 -6.135 -21.12 -14.75 a 23 23 0 0 0 44.875 -7 a 23 23 0 0 0 -16 -21.875 z"
       opacity="0.2"
       id="path3087" />
  </g>
  <path
     style="fill:#7fcc28;fill-opacity:1;fill-rule:evenodd;stroke:none"
     d="M 24 1 L 24 24 L 47 24 C 47 11.297 36.703 1 24 1 z "
     id="path3127" />
  <g
     id="g3093" />
  <path
     style="fill:#fbb909;fill-opacity:1;fill-rule:evenodd;stroke:none"
     d="M 24 24 L 24 47 C 36.703 47 47 36.703 47 24 L 24 24 z "
     id="path3129" />
  <path
     style="fill:#00abec;fill-opacity:1;fill-rule:evenodd;stroke:none"
     d="M 1 24 C 1 36.703 11.297 47 24 47 L 24 24 L 1 24 z "
     id="path3131" />
  <path
     style="opacity:0.1;fill:#000000;fill-opacity:1;fill-rule:nonzero;stroke:none"
     d="M 33.40625 13 C 32.44125 13.02 31.49675 13.64475 31.34375 14.84375 C 31.10175 16.74175 32.919 16.03125 34.375 16.03125 C 35.832 16.03125 36.2975 19.12125 35.9375 20.78125 C 35.749813 21.630186 34.638435 23.068593 32.4375 23.75 L 29.6875 21 L 26.90625 23.78125 C 25.720007 23.515552 24.416286 23.088469 22.96875 22.4375 C 22.299485 22.13668 21.669601 21.929776 21.0625 21.75 L 20.3125 21 L 19.875 21.4375 C 14.751817 20.456849 12.151846 23.552451 12 23.625 C 12.381034 27.225776 14.302427 30.972823 17.09375 33.59375 L 17 33.6875 L 20.3125 37 L 21.09375 36.21875 C 22.321078 36.719788 23.615423 37 24.96875 37 C 26.340385 37 27.66388 36.720761 28.90625 36.21875 L 29.6875 37 L 33 33.6875 L 32.90625 33.59375 C 35.992754 30.700121 38 26.393858 38 22.28125 C 38 21.46825 37.894 20.67625 37.75 19.90625 C 37.617 19.51925 37.50325 19.13725 37.40625 18.78125 C 37.22625 18.14825 37.01575 17.58975 36.84375 17.09375 C 36.83575 17.07375 36.85175 17.05125 36.84375 17.03125 C 36.15575 15.53125 35.192 14.1875 34 13.0625 C 33.992 13.0505 33.97275 13.0705 33.96875 13.0625 C 33.78075 13.0155 33.59725 13 33.40625 13 z "
     id="path3113" />
  <path
     style="opacity:0.1;fill:#000000;fill-opacity:1;fill-rule:nonzero;stroke:none"
     inkscape:connector-curvature="0"
     id="path3115"
     d="m 31.395,17.531 c 0,0.391 -0.324,0.711 -0.727,0.711 -0.398,0 -0.727,-0.32 -0.727,-0.711 0,-0.395 0.328,-0.715 0.727,-0.715 0.402,0 0.727,0.32 0.727,0.715 m 0,0" />
  <path
     style="opacity:0.1;fill:#000000;fill-opacity:1;fill-rule:nonzero;stroke:none"
     inkscape:connector-curvature="0"
     id="path3117"
     d="m 29.938,14.941 c 0,0.281 -0.23,0.508 -0.512,0.508 -0.285,0 -0.516,-0.227 -0.516,-0.508 0,-0.277 0.23,-0.504 0.516,-0.504 0.281,0 0.512,0.227 0.512,0.504 m 0,0" />
  <path
     style="fill:#8e0317;fill-opacity:1;fill-rule:nonzero;stroke:none"
     inkscape:connector-curvature="0"
     id="path3135"
     d="m 32.395,12.01 c -0.965,0.02 -1.91,0.645 -2.063,1.844 -0.242,1.898 1.574,1.188 3.03,1.188 1.457,0 1.938,3.09 1.578,4.75 -0.367,1.66 -4.23,5.59 -12.969,1.66 -7.195,-3.234 -10.789,1.074 -10.969,1.16 0.68,6.426 6.227,13.398 12.969,13.398 7.188,0 13.03,-7.688 13.03,-14.734 0,-0.813 -0.098,-1.609 -0.242,-2.379 -0.133,-0.387 -0.266,-0.773 -0.363,-1.129 -0.18,-0.633 -0.375,-1.164 -0.547,-1.66 -0.008,-0.02 0.008,-0.043 0,-0.063 -0.688,-1.5 -1.656,-2.855 -2.848,-3.98 -0.008,-0.012 -0.027,0.008 -0.031,0 -0.188,-0.047 -0.383,-0.063 -0.574,-0.063 m 0.004,0.004" />
  <path
     style="fill:#8e0317;fill-opacity:1;fill-rule:nonzero;stroke:none"
     inkscape:connector-curvature="0"
     id="path3137"
     d="m 30.395,16.531 c 0,0.391 -0.324,0.711 -0.727,0.711 -0.398,0 -0.727,-0.32 -0.727,-0.711 0,-0.395 0.328,-0.715 0.727,-0.715 0.402,0 0.727,0.32 0.727,0.715 m 0,0" />
  <path
     style="fill:#8e0317;fill-opacity:1;fill-rule:nonzero;stroke:none"
     inkscape:connector-curvature="0"
     id="path3139"
     d="m 28.938,13.941 c 0,0.281 -0.23,0.508 -0.512,0.508 -0.285,0 -0.516,-0.227 -0.516,-0.508 0,-0.277 0.23,-0.504 0.516,-0.504 0.281,0 0.512,0.227 0.512,0.504 m 0,0" />
  <path
     style="fill:#f9f9f9;fill-opacity:1;fill-rule:nonzero;stroke:none"
     inkscape:connector-curvature="0"
     id="path3141"
     d="M 28.68,20 24,24.68 19.316,20 15.996,23.32 20.68,28 15.996,32.68 19.316,36 24,31.32 28.68,36 32,32.68 27.32,28 32,23.32 M 28.68,20" />
  <g
     id="g3143">
    <path
       d="m 40.03 7.531 c 3.712 4.084 5.969 9.514 5.969 15.469 0 12.703 -10.297 23 -23 23 c -5.954 0 -11.384 -2.256 -15.469 -5.969 4.178 4.291 10.01 6.969 16.469 6.969 c 12.703 0 23 -10.298 23 -23 0 -6.462 -2.677 -12.291 -6.969 -16.469 z"
       opacity="0.1"
       id="path3145" />
  </g>
</svg>

<svg xmlns="http://www.w3.org/2000/svg" viewBox="0 0 48 48"><defs><clipPath><g transform="translate(0,-1004.3622)"><path d="m -24 13 c 0 1.105 -0.672 2 -1.5 2 -0.828 0 -1.5 -0.895 -1.5 -2 0 -1.105 0.672 -2 1.5 -2 0.828 0 1.5 0.895 1.5 2 z" transform="matrix(15.333333,0,0,11.5,414.99999,878.8622)" fill="#1890d0"/></g></clipPath><clipPath><g transform="translate(0,-1004.3622)"><path d="m -24 13 c 0 1.105 -0.672 2 -1.5 2 -0.828 0 -1.5 -0.895 -1.5 -2 0 -1.105 0.672 -2 1.5 -2 0.828 0 1.5 0.895 1.5 2 z" transform="matrix(15.333333,0,0,11.5,414.99999,878.8622)" fill="#1890d0"/></g></clipPath></defs><path d="M 24 1 C 11.297 1 1 11.297 1 24 L 24 24 L 24 1 z " fill="#f15119" fill-rule="evenodd" stroke="none" fill-opacity="1"/><g><path d="m 36.31 5 c 5.859 4.062 9.688 10.831 9.688 18.5 c 0 12.426 -10.07 22.5 -22.5 22.5 c -7.669 0 -14.438 -3.828 -18.5 -9.688 c 1.037 1.822 2.306 3.499 3.781 4.969 c 4.085 3.712 9.514 5.969 15.469 5.969 c 12.703 0 23 -10.298 23 -23 c 0 -5.954 -2.256 -11.384 -5.969 -15.469 c -1.469 -1.475 -3.147 -2.744 -4.969 -3.781 z m 4.969 3.781 c 3.854 4.113 6.219 9.637 6.219 15.719 c 0 12.703 -10.297 23 -23 23 c -6.081 0 -11.606 -2.364 -15.719 -6.219 c 4.16 4.144 9.883 6.719 16.219 6.719 c 12.703 0 23 -10.298 23 -23 c 0 -6.335 -2.575 -12.06 -6.719 -16.219 z" opacity="0.05"/><path d="m 41.28 8.781 c 3.712 4.085 5.969 9.514 5.969 15.469 c 0 12.703 -10.297 23 -23 23 c -5.954 0 -11.384 -2.256 -15.469 -5.969 c 4.113 3.854 9.637 6.219 15.719 6.219 c 12.703 0 23 -10.298 23 -23 c 0 -6.081 -2.364 -11.606 -6.219 -15.719 z" opacity="0.1"/><path d="m 31.25 2.375 c 8.615 3.154 14.75 11.417 14.75 21.13 c 0 12.426 -10.07 22.5 -22.5 22.5 c -9.708 0 -17.971 -6.135 -21.12 -14.75 a 23 23 0 0 0 44.875 -7 a 23 23 0 0 0 -16 -21.875 z" opacity="0.2"/></g><path d="M 24 1 L 24 24 L 47 24 C 47 11.297 36.703 1 24 1 z " fill="#7fcc28" fill-rule="evenodd" stroke="none" fill-opacity="1"/><path d="m 24 24 l 0 23 c 12.703 0 23 -10.297 23 -23 l -23 0 z" fill="#fbb909" fill-rule="evenodd" stroke="none" fill-opacity="1"/><path d="m 1 24 c 0 12.703 10.297 23 23 23 l 0 -23 l -23 0 z" fill="#00abec" fill-rule="evenodd" stroke="none" fill-opacity="1"/><path d="m 33.406 13 c -0.965 0.02 -1.91 0.645 -2.063 1.844 c -0.242 1.898 1.575 1.188 3.03 1.188 c 1.457 0 1.922 3.09 1.563 4.75 c -0.188 0.849 -1.299 2.287 -3.5 2.969 l -2.75 -2.75 l -2.781 2.781 c -1.186 -0.266 -2.49 -0.693 -3.938 -1.344 c -0.669 -0.301 -1.299 -0.508 -1.906 -0.688 l -0.75 -0.75 l -0.438 0.438 c -5.123 -0.981 -7.723 2.115 -7.875 2.188 c 0.381 3.601 2.302 7.348 5.094 9.969 l -0.094 0.094 l 3.313 3.313 l 0.781 -0.781 c 1.227 0.501 2.522 0.781 3.875 0.781 c 1.372 0 2.695 -0.279 3.938 -0.781 l 0.781 0.781 l 3.313 -3.313 l -0.094 -0.094 c 3.087 -2.894 5.094 -7.2 5.094 -11.313 c 0 -0.813 -0.106 -1.605 -0.25 -2.375 c -0.133 -0.387 -0.247 -0.769 -0.344 -1.125 c -0.18 -0.633 -0.391 -1.192 -0.563 -1.688 c -0.008 -0.02 0.008 -0.043 0 -0.063 c -0.688 -1.5 -1.652 -2.844 -2.844 -3.969 c -0.008 -0.012 -0.027 0.008 -0.031 0 c -0.188 -0.047 -0.371 -0.063 -0.563 -0.063 z" opacity="0.1" fill="#000" fill-rule="nonzero" stroke="none" fill-opacity="1"/><path d="m 31.395 17.531 c 0 0.391 -0.324 0.711 -0.727 0.711 -0.398 0 -0.727 -0.32 -0.727 -0.711 0 -0.395 0.328 -0.715 0.727 -0.715 0.402 0 0.727 0.32 0.727 0.715 m 0 0" opacity="0.1" fill="#000" fill-rule="nonzero" stroke="none" fill-opacity="1"/><path d="m 29.938 14.941 c 0 0.281 -0.23 0.508 -0.512 0.508 -0.285 0 -0.516 -0.227 -0.516 -0.508 0 -0.277 0.23 -0.504 0.516 -0.504 0.281 0 0.512 0.227 0.512 0.504 m 0 0" opacity="0.1" fill="#000" fill-rule="nonzero" stroke="none" fill-opacity="1"/><path d="m 32.395 12.01 c -0.965 0.02 -1.91 0.645 -2.063 1.844 -0.242 1.898 1.574 1.188 3.03 1.188 1.457 0 1.938 3.09 1.578 4.75 -0.367 1.66 -4.23 5.59 -12.969 1.66 -7.195 -3.234 -10.789 1.074 -10.969 1.16 0.68 6.426 6.227 13.398 12.969 13.398 7.188 0 13.03 -7.688 13.03 -14.734 0 -0.813 -0.098 -1.609 -0.242 -2.379 -0.133 -0.387 -0.266 -0.773 -0.363 -1.129 -0.18 -0.633 -0.375 -1.164 -0.547 -1.66 -0.008 -0.02 0.008 -0.043 0 -0.063 -0.688 -1.5 -1.656 -2.855 -2.848 -3.98 -0.008 -0.012 -0.027 0.008 -0.031 0 -0.188 -0.047 -0.383 -0.063 -0.574 -0.063 m 0.004 0.004" fill="#8e0317" fill-rule="nonzero" stroke="none" fill-opacity="1"/><path d="m 30.395 16.531 c 0 0.391 -0.324 0.711 -0.727 0.711 -0.398 0 -0.727 -0.32 -0.727 -0.711 0 -0.395 0.328 -0.715 0.727 -0.715 0.402 0 0.727 0.32 0.727 0.715 m 0 0" fill="#8e0317" fill-rule="nonzero" stroke="none" fill-opacity="1"/><path d="m 28.938 13.941 c 0 0.281 -0.23 0.508 -0.512 0.508 -0.285 0 -0.516 -0.227 -0.516 -0.508 0 -0.277 0.23 -0.504 0.516 -0.504 0.281 0 0.512 0.227 0.512 0.504 m 0 0" fill="#8e0317" fill-rule="nonzero" stroke="none" fill-opacity="1"/><path d="M 28.68,20 24,24.68 19.316,20 15.996,23.32 20.68,28 15.996,32.68 19.316,36 24,31.32 28.68,36 32,32.68 27.32,28 32,23.32 M 28.68,20" fill="#f9f9f9" fill-rule="nonzero" stroke="none" fill-opacity="1"/><g><path d="m 40.03 7.531 c 3.712 4.084 5.969 9.514 5.969 15.469 0 12.703 -10.297 23 -23 23 c -5.954 0 -11.384 -2.256 -15.469 -5.969 4.178 4.291 10.01 6.969 16.469 6.969 c 12.703 0 23 -10.298 23 -23 0 -6.462 -2.677 -12.291 -6.969 -16.469 z" opacity="0.1"/></g></svg>
